X:1
T:Music21 Fragment
C:Music21
%%score ( 1 2 )
L:1/4
Q:1/4=100
M:4/4
I:linebreak $
K:C
V:1 treble nm="Piano" snm="Pno"
V:2 treble 
V:1
 C C G G | A A [GE,]2 | F F E E | [DF,] [DG,] C2 | G G F F | E E [DG,]2 | G G F F | E E [DG,]2 | %8
 C C G G | A A [GE,]2 | F F E E | [DF,] [DG,] [CC,]2 |] %12
V:2
 C,2 E,2 | F,2 x2 | D,2 C,2 | x2 E, C, | E,2 F,2 | G,2 x2 | E,2 F,2 | G,2 x2 | C,2 E,2 | F,2 x2 | %10
 D,2 C,2 | x4 |] %12
